icons/svg/seamark/buoy_blackyellow_conical.svg

<?xml version="1.0" encoding="UTF-8" standalone="no"?>
<svg
   xmlns:dc="http://purl.org/dc/elements/1.1/"
   xmlns:cc="http://creativecommons.org/ns#"
   xmlns:rdf="http://www.w3.org/1999/02/22-rdf-syntax-ns#"
   xmlns:svg="http://www.w3.org/2000/svg"
   xmlns="http://www.w3.org/2000/svg"
   xmlns:sodipodi="http://sodipodi.sourceforge.net/DTD/sodipodi-0.dtd"
   xmlns:inkscape="http://www.inkscape.org/namespaces/inkscape"
   width="580"
   height="580"
   id="svg2"
   version="1.1"
   inkscape:version="0.48.4 r9939"
   sodipodi:docname="buoy_blackyellowblack_conical.svg">
  <defs
     id="defs13">
    <inkscape:path-effect
       effect="gears"
       id="path-effect3774"
       is_visible="true"
       teeth="6"
       phi="-1.2" />
    <inkscape:path-effect
       effect="bend_path"
       id="path-effect3772"
       is_visible="false"
       bendpath="m 95.790098,316.51174 c 144.429032,-206.42506 223.313032,-11.7428 339.548092,0"
       prop_scale="1.19"
       scale_y_rel="false"
       vertical="false"
       bendpath-nodetypes="cc" />
  </defs>
  <sodipodi:namedview
     pagecolor="#ffffff"
     bordercolor="#666666"
     borderopacity="1"
     objecttolerance="10"
     gridtolerance="10"
     guidetolerance="10"
     inkscape:pageopacity="0"
     inkscape:pageshadow="2"
     inkscape:window-width="1920"
     inkscape:window-height="1004"
     id="namedview11"
     showgrid="false"
     inkscape:zoom="1.6275862"
     inkscape:cx="207.65753"
     inkscape:cy="184.65403"
     inkscape:window-x="1680"
     inkscape:window-y="0"
     inkscape:window-maximized="1"
     inkscape:current-layer="svg2" />
  <metadata
     id="metadata2975">image/svg+xmlen<rdf:RDF>
  <cc:Work
     rdf:about="">
    <dc:format>image/svg+xml</dc:format>
    <dc:type
       rdf:resource="http://purl.org/dc/dcmitype/StillImage" />
    <dc:title></dc:title>
  </cc:Work>
</rdf:RDF>
</metadata>
  <path
     style="font-size:medium;font-style:normal;font-variant:normal;font-weight:normal;font-stretch:normal;text-indent:0;text-align:start;text-decoration:none;line-height:normal;letter-spacing:normal;word-spacing:normal;text-transform:none;direction:ltr;block-progression:tb;writing-mode:lr-tb;text-anchor:start;baseline-shift:baseline;opacity:0.42608696000000001;color:#000000;fill:#8d8d8d;fill-opacity:1;fill-rule:nonzero;stroke:#a35151;stroke-width:0;stroke-linecap:round;stroke-linejoin:miter;stroke-miterlimit:4;stroke-opacity:1;stroke-dashoffset:0;marker:none;visibility:visible;display:inline;overflow:visible;enable-background:accumulate;font-family:Sans;-inkscape-font-specification:Sans;stroke-dasharray:none"
     d="m 346.90244,228.31555 c 0,0 -181.23593,79.61489 -216.37119,256.24695 l -30.53125,0 c -5.145351,0.002 -10.258122,2.1215 -13.896435,5.75981 -3.638313,3.63832 -5.757462,8.75109 -5.759815,13.89644 l 0,25 c 0.0024,5.14535 2.121502,10.25812 5.759815,13.89644 3.638313,3.63831 8.751084,5.75746 13.896435,5.75981 l 128.625,0 c 0.031,0.0522 0.0622,0.10431 0.0937,0.15625 0.002,0.004 0.0284,0.0265 0.0312,0.0312 0.0335,0.0563 0.10786,0.20437 0.25,0.4375 l 0.0312,-0.0312 c 2.94688,5.0162 6.76234,9.76623 11.40625,13.875 l -0.0312,0.0312 c 0.11968,0.10972 0.25445,0.20367 0.375,0.3125 0.0109,0.01 0.0204,0.0214 0.0312,0.0312 10.80486,9.74079 25.09534,15.85668 40.625,16.3125 1.0068,0.0988 2.02123,0.11968 3.03125,0.0625 1.46775,-0.0878 1.73097,-0.12582 0.8125,-0.0625 l 0,-0.0312 c 7.08835,-0.22536 13.9514,-1.62942 20.3125,-4.03125 l 0,0.0312 c 0.0624,-0.0222 0.12521,-0.0402 0.1875,-0.0625 0.12201,-0.0465 0.25336,-0.0778 0.375,-0.125 L 306.125,575.75 c 10.56701,-3.8694 19.64088,-10.58058 26.125,-18.84375 l 0.0312,0.0312 c -0.0904,0.10942 0.0535,-0.0561 0.4375,-0.53125 0.0209,-0.0312 0.0418,-0.0624 0.0625,-0.0937 0.042,-0.0623 0.0837,-0.12476 0.125,-0.1875 0.10571,-0.1237 0.20989,-0.24871 0.3125,-0.375 1.19955,-1.61364 1.24347,-1.71888 0.1875,-0.28125 1.62498,-2.08522 3.09939,-4.30129 4.46875,-6.59375 l 117.53125,0 c 5.14535,-0.002 10.25812,-2.1215 13.89644,-5.75981 3.63831,-3.63832 5.75746,-8.75109 5.75981,-13.89644 l 0,-25 c -0.002,-5.14534 -2.12149,-10.25811 -5.7598,-13.89642 -3.6383,-3.63831 -8.75106,-5.75746 -13.8964,-5.75983 l -30.34375,0 c 1.74055,-22.84875 1.74147,-48.67741 -1.03125,-75.625 -0.002,-0.0227 0.002,-0.0399 0,-0.0625 -0.0777,-0.78592 -0.14923,-1.48916 -0.21875,-2.15625 7e-5,-0.0312 7e-5,-0.0625 0,-0.0937 0.10263,0.94439 0.0288,0.51804 -0.0625,-0.34375 l 0.0312,0 c -1.92081,-18.23767 -4.96442,-34.82897 -8.71875,-49.84375 -0.008,-0.0316 -0.0235,-0.0621 -0.0312,-0.0937 -0.31567,-1.28211 -0.63484,-2.58404 -0.96875,-3.875 -0.0104,-0.0208 -0.0208,-0.0417 -0.0312,-0.0625 -0.13319,-0.50531 -0.21689,-0.92584 -0.3125,-1.28125 -0.008,-0.0317 -0.0229,-0.062 -0.0312,-0.0937 -4.59275,-32.32452 -34.5777,-88.21587 -66.78516,-122.71585 z"
     id="path4079"
     inkscape:connector-curvature="0"
     sodipodi:nodetypes="cccsccsccccccccccccccccccccccccccccsccsccccccccccccccc" />
  <path
     style="color:#000000;fill:#000000;fill-opacity:1;fill-rule:nonzero;stroke:none;marker:none;visibility:visible;display:inline;overflow:visible;enable-background:accumulate;stroke-width:0"
     d="m 340.10823,255.38796 c 0,0 -163.31458,73.09349 -197.07698,263.26829 l 96.34375,0.4375 c 2.85677,21.00574 13.23986,37.36288 43.8125,41.25 27.07515,-1.62024 39.63698,-17.23547 43.8125,-40.9375 l 74.44588,0.28125 C 427.56637,328.61497 340.10823,255.38796 340.10823,255.38796 z"
     id="path3822"
     inkscape:connector-curvature="0"
     sodipodi:nodetypes="ccccccc" />
  <path
     style="opacity:1;color:#000000;fill:#ffd400;fill-opacity:1;fill-rule:nonzero;stroke:none;stroke-width:0;marker:none;visibility:visible;display:inline;overflow:visible;enable-background:accumulate"
     d="m 212.93471,360.86888 190.53287,42.07764 c 0,0 3.41678,25.27241 3.05839,52.25383 -0.3584,26.98142 -3.83792,53.70101 -3.83792,53.70101 L 144.1443,511.1465 c 0,0 4.33209,-20.91349 12.24837,-45.02039 4.88754,-14.88366 11.27629,-32.18966 26.11514,-59.20906 14.83885,-27.01939 30.4269,-46.04817 30.4269,-46.04817 z"
     id="rect2999"
     inkscape:connector-curvature="0"
     sodipodi:nodetypes="cczccszc" />
  <path
     style="fill:none;stroke:#000000;stroke-width:25;stroke-linecap:butt;stroke-linejoin:miter;stroke-opacity:1;stroke-miterlimit:4;stroke-dasharray:none"
     d="m 99.923776,516.57012 355.381084,0"
     id="path3759"
     inkscape:connector-curvature="0" />
  <path
     sodipodi:type="arc"
     style="color:#000000;fill:#fefefe;fill-opacity:1;stroke:#000000;stroke-width:25;stroke-linecap:round;stroke-linejoin:round;stroke-miterlimit:10;stroke-opacity:1;stroke-dasharray:none;stroke-dashoffset:0;marker:none;visibility:visible;display:inline;overflow:visible;enable-background:accumulate"
     id="path3759-1"
     sodipodi:cx="210.27438"
     sodipodi:cy="76.036606"
     sodipodi:rx="40.838413"
     sodipodi:ry="40.838413"
     d="m 251.1128,76.036606 a 40.838413,40.838413 0 1 1 -81.67683,0 40.838413,40.838413 0 1 1 81.67683,0 z"
     transform="matrix(0.82289092,0,0,0.82289092,110.16458,453.8318)" />
  <path
     style="opacity:0.42608696;color:#000000;fill:#000000;fill-opacity:1;fill-rule:nonzero;stroke:#a35151;stroke-width:0;stroke-linecap:round;stroke-linejoin:miter;stroke-miterlimit:4;stroke-opacity:1;stroke-dashoffset:0;marker:none;visibility:visible;display:inline;overflow:visible;enable-background:accumulate"
     d="m 340.08584,255.45512 c 37.80915,36.05938 56.39592,92.09738 63.25065,146.05919 4.80761,37.84655 3.78902,74.727 -0.17946,102.74028 l -53.80679,3.77972 c 5.93533,-99.87951 7.7492,-149.37078 -9.2644,-252.57919 z"
     id="rect3050"
     inkscape:connector-curvature="0"
     sodipodi:nodetypes="csccc" />
</svg>

<svg width="580" height="580" viewBox="0 0 580 580" fill="none" xmlns="http://www.w3.org/2000/svg">
<g clip-path="url(#clip0)">
<path opacity="0.426087" d="M346.902 228.315C346.902 228.315 165.667 307.93 130.531 484.562H100C94.8546 484.564 89.7419 486.684 86.1036 490.322C82.4652 493.96 80.3461 499.073 80.3438 504.219V529.219C80.3462 534.364 82.4652 539.477 86.1036 543.115C89.7419 546.753 94.8546 548.873 100 548.875H228.625C228.656 548.927 228.687 548.979 228.719 549.031C228.721 549.035 228.747 549.058 228.75 549.062C228.783 549.119 228.858 549.267 229 549.5L229.031 549.469C231.978 554.485 235.793 559.235 240.437 563.344L240.406 563.375C240.526 563.485 240.661 563.578 240.781 563.687C240.792 563.697 240.802 563.709 240.812 563.719C251.617 573.459 265.908 579.575 281.437 580.031C282.444 580.13 283.459 580.151 284.469 580.094C285.936 580.006 286.2 579.968 285.281 580.031V580C292.369 579.774 299.232 578.37 305.594 575.969V576C305.656 575.978 305.719 575.96 305.781 575.937C305.903 575.891 306.034 575.859 306.156 575.812L306.125 575.75C316.692 571.88 325.766 565.169 332.25 556.906L332.281 556.937C332.191 557.047 332.335 556.881 332.719 556.406C332.74 556.375 332.76 556.344 332.781 556.312C332.823 556.25 332.865 556.188 332.906 556.125C333.012 556.001 333.116 555.876 333.219 555.75C334.418 554.136 334.462 554.031 333.406 555.469C335.031 553.383 336.506 551.167 337.875 548.875H455.406C460.552 548.873 465.664 546.753 469.303 543.115C472.941 539.477 475.06 534.364 475.062 529.219V504.219C475.06 499.073 472.941 493.961 469.303 490.322C465.664 486.684 460.552 484.565 455.406 484.562H425.062C426.803 461.714 426.804 435.885 424.031 408.937C424.029 408.915 424.033 408.897 424.031 408.875C423.954 408.089 423.882 407.386 423.812 406.719C423.813 406.687 423.813 406.656 423.812 406.625C423.915 407.569 423.841 407.143 423.75 406.281H423.781C421.86 388.044 418.817 371.452 415.062 356.437C415.054 356.406 415.039 356.375 415.031 356.344C414.716 355.062 414.396 353.76 414.062 352.469C414.052 352.448 414.042 352.427 414.031 352.406C413.898 351.901 413.814 351.48 413.719 351.125C413.711 351.093 413.696 351.063 413.688 351.031C409.095 318.707 379.11 262.815 346.902 228.315V228.315Z" fill="#8D8D8D"/>
<path d="M340.108 255.388C340.108 255.388 176.794 328.482 143.031 518.656L239.375 519.094C242.232 540.1 252.615 556.457 283.188 560.344C310.263 558.724 322.824 543.109 327 519.406L401.446 519.688C427.566 328.615 340.108 255.388 340.108 255.388Z" fill="black"/>
<path d="M212.935 360.869L403.468 402.946C403.468 402.946 406.884 428.219 406.526 455.2C406.168 482.182 402.688 508.901 402.688 508.901L144.144 511.146C144.144 511.146 148.476 490.233 156.393 466.126C161.28 451.242 167.669 433.936 182.508 406.917C197.347 379.897 212.935 360.869 212.935 360.869V360.869Z" fill="#FFD400"/>
<path d="M99.9238 516.57H455.305" stroke="black" stroke-width="25"/>
<path d="M316.803 516.401C316.803 525.314 313.262 533.862 306.96 540.164C300.658 546.466 292.11 550.007 283.197 550.007C274.285 550.007 265.737 546.466 259.435 540.164C253.132 533.862 249.592 525.314 249.592 516.401C249.592 507.489 253.132 498.941 259.435 492.639C265.737 486.336 274.285 482.796 283.197 482.796C292.11 482.796 300.658 486.336 306.96 492.639C313.262 498.941 316.803 507.489 316.803 516.401V516.401Z" fill="#FEFEFE" stroke="black" stroke-width="20.5723" stroke-miterlimit="10" stroke-linecap="round" stroke-linejoin="round"/>
<path opacity="0.426087" d="M340.086 255.455C377.895 291.514 396.482 347.552 403.336 401.514C408.144 439.361 407.125 476.241 403.157 504.255L349.35 508.034C355.286 408.155 357.099 358.663 340.086 255.455Z" fill="black"/>
</g>
<defs>
<clipPath id="clip0">
<path d="M0 0H580V580H0V0Z" fill="white"/>
</clipPath>
</defs>
</svg>
